X:1
T:Title
%%score { 1 | 2 }
L:1/8
Q:1/4=94
M:2/4
K:F
V:1 treble nm="Grand Piano"
V:2 bass 
V:1
 [Fc][CFA] [CG][K:bass][F,CF] | [F,B,D]2[K:treble] [F,B,F]2 | [A,C]4 | [A,DF]2 [=B,FA]2 | [CEG]4 | %5
w: Hubert~P.~Main * * *|||||
 [Fc][CFA] [CG][K:bass][F,^CF] | [F,D]2[K:treble] [F,B,F]2 | [A,C]4 | [A,DF]2 [B,EG]2 | [A,F]4 |] %10
w: |||||
V:2
 [F,A,]F, A,,A,, | B,,2 D,2 | F,4 | D,2 G,,2 | C,2 B,2 | A,F, A,,A,, | B,,2 D,2 | F,4 | D,2 C,2 | %9
 F,4 |] %10

